X: 1
T: Ships Are Sailing
S: New England Fiddler's Repertoire (Randy Miller et al)
N: arr. T. Traub 11-19-2002
R: Reel
M: 4/4
L: 1/8
K: Edor
ed |\
"Em"Beed BcdB | "D"ADFD ADFD \
|1 "Em"EDEF GFGA | "Em"Beef "(Bm)"gf \
:|2 "Em"EDEF GFGA | "Bm"Beed "Em"e2 |]
|: ef |\
"Em"gfga bgeg | "D"fefg afdf \
|1 "Em"gfga bgeg | "D"afdf "Em"e2 \
:|2 "G"g2 bg "D"f2 af | "Bm"edef "Em"e2 |]
